images/preferences/4.svg

<svg width="52" height="52" viewBox="0 0 52 52" fill="none" xmlns="http://www.w3.org/2000/svg">
<g clip-path="url(#clip0)">
<path d="M13.8094 35.2866C13.6395 35.1333 13.3397 34.9504 12.883 34.9504H8.35812V32.84H12.2477C12.6186 32.84 12.9583 32.7031 13.2071 32.4544C13.448 32.216 13.5806 31.898 13.5806 31.5609C13.5806 31.2108 13.4541 30.8979 13.1742 30.6214C12.9281 30.3978 12.6083 30.2808 12.2477 30.2808H8.3304L8.27667 28.5163H12.7096C13.0727 28.5163 13.4081 28.3794 13.6569 28.1306C13.8978 27.8923 14.0304 27.5716 14.0304 27.2371C14.0304 26.8922 13.8987 26.5689 13.624 26.2977C13.3778 26.074 13.0606 25.957 12.7096 25.957H7.88576C7.21586 25.957 6.64905 26.2031 6.2426 26.6703C5.90024 27.0689 5.71997 27.582 5.71997 28.1505V35.3282C5.71997 35.8915 5.89506 36.3846 6.24514 36.7981C6.52423 37.1204 7.03722 37.5061 7.88576 37.5061H12.8829C13.3682 37.5061 13.6776 37.293 13.8328 37.1326C14.0815 36.8942 14.2159 36.5719 14.2159 36.2261C14.2159 35.8802 14.0841 35.5579 13.8094 35.2866Z" fill="url(#paint0_linear)"/>
<path d="M24.4877 32.9283C24.2971 32.6224 24.0023 32.4187 23.6393 32.3381C23.5353 32.3156 23.4339 32.3052 23.3325 32.3052L22.8826 32.359L22.672 32.4786C22.3314 32.6745 22.1035 33.0038 22.0377 33.38C21.8877 34.0655 21.6337 34.5379 21.2707 34.8117C20.9483 35.0526 20.4959 35.1748 19.9248 35.1748C19.163 35.1748 18.6066 34.9365 18.1707 34.4235C17.6654 33.829 17.4089 32.9251 17.4089 31.7343C17.4089 30.5738 17.668 29.6751 18.1681 29.0737C18.6248 28.5433 19.1838 28.2946 19.9248 28.2946C20.5063 28.2946 20.9579 28.4142 21.3062 28.6577C21.6641 28.909 21.8877 29.2895 21.9891 29.8026C22.0801 30.3208 22.3626 30.6025 22.555 30.729C22.7708 30.8816 23.0221 30.963 23.2813 30.963L23.5734 30.9301C23.9035 30.8565 24.193 30.6657 24.3958 30.3763C24.5917 30.0842 24.6671 29.7445 24.6116 29.3579C24.4157 28.3119 23.9486 27.4565 23.2103 26.8092C22.3748 26.0959 21.2681 25.7354 19.9248 25.7354C18.3864 25.7354 17.1246 26.3117 16.1774 27.4444C15.2431 28.5416 14.7708 29.9863 14.7708 31.7353C14.7708 33.5232 15.2457 34.9774 16.1747 36.0495C17.1194 37.1692 18.3812 37.7351 19.9248 37.7351C21.2733 37.7351 22.3827 37.3442 23.2206 36.5747C23.9217 35.9403 24.4036 35.0788 24.6602 34.0102C24.7745 33.4994 24.6221 33.1285 24.4877 32.9283Z" fill="url(#paint1_linear)"/>
<path d="M35.1343 27.6469C34.1594 26.3746 32.7883 25.7324 31.0515 25.7324C29.3043 25.7333 27.9254 26.379 26.9487 27.6581C26.1462 28.7397 25.7397 30.1107 25.7397 31.7332C25.7397 33.3555 26.1462 34.7239 26.9531 35.7977C27.9229 37.0821 29.3017 37.7321 31.0515 37.7321C32.7883 37.7321 34.1619 37.0821 35.1317 35.802C35.9593 34.7257 36.3762 33.3571 36.3762 31.7321C36.3762 30.1098 35.9602 28.7362 35.1343 27.6469ZM33.0656 34.2516C32.6037 34.8886 31.9616 35.1858 31.0524 35.1858C30.1355 35.1858 29.4959 34.8886 29.0418 34.2568C28.6024 33.6423 28.3788 32.7947 28.3788 31.7331C28.3788 30.6644 28.6024 29.816 29.0444 29.2067C29.496 28.5749 30.1364 28.2776 31.0525 28.2776C31.9616 28.2776 32.6012 28.5749 33.0658 29.2145C33.5121 29.8264 33.7383 30.6749 33.7383 31.7331C33.7382 32.7843 33.5094 33.6346 33.0656 34.2516Z" fill="url(#paint2_linear)"/>
<path d="M50.8512 0.851802C50.6925 0.420167 50.3138 0.102992 49.8519 0.0188992L49.6326 0.000719748C49.2495 0.000719748 48.889 0.16535 48.642 0.45226C47.8005 1.43507 45.471 1.84588 43.2107 2.24451C40.0214 2.80868 36.0392 3.56267 33.6679 6.32991C32.3974 3.49676 29.755 1.20534 27.4297 0.122085C27.0111 -0.0738261 26.5207 -0.031272 26.1401 0.230451C25.7666 0.492174 25.5482 0.936808 25.5846 1.40043C25.6479 2.21333 24.5836 3.51849 23.5549 4.78039C22.2775 6.34473 20.7513 8.25571 20.3768 10.4214C9.08791 10.6502 0.00195312 19.8558 0.00195312 31.2003C0.00195312 42.6878 9.31419 52 20.8017 52C32.2891 52 41.6014 42.6878 41.6014 31.2003C41.6014 27.2596 40.4851 23.5885 38.582 20.4477C39.4451 20.6722 40.356 20.7978 41.311 20.7978C44.9605 20.7978 47.7668 19.4372 49.6491 16.7479C52.9979 11.9701 52.1641 4.4623 50.8512 0.851802ZM25.569 6.42263C26.4297 5.36792 27.2625 4.34875 27.7496 3.29404C29.6319 4.5862 31.3834 6.63327 31.7656 8.80079C32.016 10.2221 31.6235 11.5879 30.6572 12.8827C30.0773 12.5698 29.4811 12.2821 28.8701 12.0247C29.0928 10.9379 29.2358 9.72723 29.0624 8.26089C28.9784 7.54762 28.3318 7.03799 27.6187 7.123C26.9071 7.21054 26.3967 7.85617 26.4808 8.56689C26.596 9.54096 26.5232 10.3878 26.3837 11.1816C25.2978 10.8791 24.1832 10.6477 23.0332 10.5247C23.3426 9.28696 24.2856 7.99734 25.569 6.42263ZM39.0014 31.2003C39.0014 41.2352 30.8366 49.4 20.8017 49.4C10.7667 49.4 2.60192 41.2352 2.60192 31.2003C2.60192 21.1653 10.7667 13.0005 20.8017 13.0005C30.8366 13.0005 39.0014 21.1653 39.0014 31.2003ZM47.5206 15.2582C46.1547 17.2082 44.0661 18.1988 41.311 18.1988C39.348 18.1988 37.6078 17.5999 36.3208 16.4951C37.3019 15.7541 38.419 15.1465 39.6496 14.6924L39.9235 14.5858C42.1638 13.8041 44.2585 13.824 44.4223 13.8622L44.7014 13.8926C45.3133 13.8926 45.8351 13.4766 45.9711 12.8768C46.0993 12.2979 45.8185 11.7216 45.3201 11.4503C46.5404 10.3488 47.505 9.06871 48.2017 7.62664C48.3516 7.31464 48.3717 6.96101 48.2572 6.63347C48.1428 6.30584 47.9071 6.04157 47.5942 5.89248C46.9737 5.59785 46.1599 5.87684 45.8591 6.49657C44.8235 8.64245 43.0945 10.2847 40.5986 11.4859C40.7519 10.4017 40.5829 9.32525 40.0933 8.34508C39.7839 7.72018 38.9571 7.46373 38.3531 7.761C38.0411 7.91609 37.8088 8.18218 37.6979 8.51235C37.5861 8.84517 37.613 9.19789 37.7681 9.50552C38.5498 11.0724 37.5627 12.5016 37.1804 12.9661C36.3251 13.3925 35.5191 13.89 34.7737 14.4515C34.3308 13.4869 34.1618 12.4227 34.2849 11.3238C34.8344 6.36738 39.1209 5.61075 43.663 4.80822C45.6026 4.46504 47.4537 4.14005 48.901 3.42678C49.7747 7.15326 49.7037 12.14 47.5206 15.2582Z" fill="url(#paint3_linear)"/>
</g>
<defs>
<linearGradient id="paint0_linear" x1="4.65798" y1="24.1496" x2="20.0875" y2="37.2506" gradientUnits="userSpaceOnUse">
<stop stop-color="#1C2D5A"/>
<stop offset="1" stop-color="#4FC3DD" stop-opacity="0.96"/>
</linearGradient>
<linearGradient id="paint1_linear" x1="13.5296" y1="23.8574" x2="29.759" y2="39.3582" gradientUnits="userSpaceOnUse">
<stop stop-color="#1C2D5A"/>
<stop offset="1" stop-color="#4FC3DD" stop-opacity="0.96"/>
</linearGradient>
<linearGradient id="paint2_linear" x1="24.4102" y1="23.8545" x2="40.6524" y2="40.4719" gradientUnits="userSpaceOnUse">
<stop stop-color="#1C2D5A"/>
<stop offset="1" stop-color="#4FC3DD" stop-opacity="0.96"/>
</linearGradient>
<linearGradient id="paint3_linear" x1="-6.49793" y1="-8.13798" x2="63.1874" y2="72.2932" gradientUnits="userSpaceOnUse">
<stop stop-color="#1C2D5A"/>
<stop offset="1" stop-color="#4FC3DD" stop-opacity="0.96"/>
</linearGradient>
<clipPath id="clip0">
<rect width="52" height="52" fill="white"/>
</clipPath>
</defs>
</svg>

<svg width="52" height="52" fill="none" xmlns="http://www.w3.org/2000/svg"><g clip-path="url(#a)"><path d="M13.81 35.287a1.35 1.35 0 0 0-.927-.337H8.358v-2.11h3.89c.37 0 .71-.137.96-.386a1.273 1.273 0 0 0-.033-1.833 1.349 1.349 0 0 0-.927-.34H8.33l-.053-1.765h4.433c.363 0 .698-.137.947-.385.24-.239.373-.56.373-.894 0-.345-.131-.668-.406-.94a1.335 1.335 0 0 0-.914-.34H7.886c-.67 0-1.237.246-1.643.713-.343.399-.523.912-.523 1.48v7.178c0 .563.175 1.057.525 1.47.28.322.792.708 1.64.708h4.998c.485 0 .795-.213.95-.373.248-.239.383-.561.383-.907s-.132-.668-.407-.94Z" fill="url(#b)"/><path d="M24.488 32.928a1.31 1.31 0 0 0-.849-.59 1.44 1.44 0 0 0-.306-.033l-.45.054-.211.12c-.34.196-.569.525-.634.901-.15.685-.404 1.158-.767 1.432-.323.24-.775.363-1.346.363-.762 0-1.318-.238-1.754-.752-.506-.594-.762-1.498-.762-2.689 0-1.16.259-2.059.76-2.66.456-.53 1.015-.78 1.756-.78.581 0 1.033.12 1.381.364.358.251.582.631.683 1.145.091.518.374.8.566.926.216.153.467.234.726.234l.292-.033c.33-.073.62-.264.823-.554a1.41 1.41 0 0 0 .216-1.018c-.196-1.046-.663-1.902-1.402-2.549-.835-.713-1.942-1.074-3.285-1.074-1.539 0-2.8.577-3.748 1.71-.934 1.097-1.406 2.541-1.406 4.29 0 1.788.475 3.242 1.404 4.315.944 1.12 2.206 1.685 3.75 1.685 1.348 0 2.458-.39 3.296-1.16.7-.635 1.183-1.496 1.44-2.565.113-.51-.039-.881-.173-1.082Z" fill="url(#c)"/><path d="M35.134 27.647c-.975-1.272-2.346-1.915-4.082-1.915-1.748.001-3.127.647-4.103 1.926-.803 1.082-1.21 2.453-1.21 4.075 0 1.622.407 2.99 1.214 4.065.97 1.284 2.349 1.934 4.099 1.934 1.736 0 3.11-.65 4.08-1.93.827-1.076 1.244-2.445 1.244-4.07 0-1.622-.416-2.996-1.242-4.085Zm-2.068 6.605c-.462.637-1.104.934-2.014.934-.916 0-1.556-.297-2.01-.93-.44-.614-.663-1.461-.663-2.523 0-1.069.223-1.917.665-2.526.452-.632 1.092-.93 2.008-.93.91 0 1.55.298 2.014.938.446.611.672 1.46.672 2.518 0 1.051-.229 1.902-.672 2.519Z" fill="url(#d)"/><path d="M50.851.852a1.31 1.31 0 0 0-1-.833L49.634 0c-.384 0-.744.164-.991.451-.842.983-3.171 1.394-5.431 1.793-3.19.564-7.172 1.318-9.543 4.085-1.27-2.833-3.913-5.125-6.238-6.208a1.302 1.302 0 0 0-1.29.108 1.31 1.31 0 0 0-.555 1.17c.063.813-1.001 2.118-2.03 3.38-1.277 1.565-2.804 3.476-3.178 5.641-11.29.23-20.375 9.435-20.375 20.78C.002 42.687 9.314 52 20.802 52c11.487 0 20.8-9.312 20.8-20.8 0-3.94-1.117-7.611-3.02-10.752.863.224 1.774.35 2.729.35 3.65 0 6.456-1.36 8.338-4.05C52.998 11.97 52.164 4.462 50.851.852ZM25.57 6.422c.86-1.054 1.694-2.073 2.18-3.128 1.883 1.292 3.634 3.34 4.017 5.507.25 1.421-.142 2.787-1.109 4.082-.58-.313-1.176-.6-1.787-.858.223-1.087.366-2.298.192-3.764a1.299 1.299 0 1 0-2.581.306c.115.974.042 1.82-.097 2.615a20.651 20.651 0 0 0-3.35-.657c.309-1.238 1.252-2.528 2.535-4.102ZM39.001 31.2c0 10.035-8.164 18.2-18.2 18.2-10.034 0-18.2-8.165-18.2-18.2S10.768 13 20.802 13c10.036 0 18.2 8.165 18.2 18.2Zm8.52-15.942c-1.366 1.95-3.455 2.94-6.21 2.94-1.963 0-3.703-.598-4.99-1.703a12.939 12.939 0 0 1 3.329-1.803l.273-.106c2.24-.782 4.335-.762 4.5-.724l.278.03c.612 0 1.134-.415 1.27-1.015a1.305 1.305 0 0 0-.65-1.427 12.38 12.38 0 0 0 2.88-3.823 1.295 1.295 0 0 0-.607-1.735c-.62-.294-1.434-.015-1.735.605-1.035 2.145-2.765 3.788-5.26 4.989a5.302 5.302 0 0 0-.506-3.14c-.31-.626-1.136-.882-1.74-.585a1.292 1.292 0 0 0-.655.751c-.112.333-.085.686.07.994.782 1.566-.205 2.996-.588 3.46-.855.427-1.66.924-2.406 1.486a5.868 5.868 0 0 1-.49-3.128c.55-4.957 4.837-5.713 9.379-6.516 1.94-.343 3.79-.668 5.238-1.381.874 3.726.803 8.713-1.38 11.831Z" fill="url(#e)"/></g><defs><linearGradient id="b" x1="4.658" y1="24.15" x2="20.087" y2="37.251" gradientUnits="userSpaceOnUse"><stop stop-color="#1C2D5A"/><stop offset="1" stop-color="#4FC3DD" stop-opacity=".96"/></linearGradient><linearGradient id="c" x1="13.53" y1="23.857" x2="29.759" y2="39.358" gradientUnits="userSpaceOnUse"><stop stop-color="#1C2D5A"/><stop offset="1" stop-color="#4FC3DD" stop-opacity=".96"/></linearGradient><linearGradient id="d" x1="24.41" y1="23.855" x2="40.652" y2="40.472" gradientUnits="userSpaceOnUse"><stop stop-color="#1C2D5A"/><stop offset="1" stop-color="#4FC3DD" stop-opacity=".96"/></linearGradient><linearGradient id="e" x1="-6.498" y1="-8.138" x2="63.187" y2="72.293" gradientUnits="userSpaceOnUse"><stop stop-color="#1C2D5A"/><stop offset="1" stop-color="#4FC3DD" stop-opacity=".96"/></linearGradient><clipPath id="a"><path fill="#fff" d="M0 0h52v52H0z"/></clipPath></defs></svg>
